X: 7
T: Cooley's
Z: Tate
S: https://thesession.org/tunes/1#setting22061
R: reel
M: 4/4
L: 1/8
K: Edor
D|"Em"EB{=c}BA B2 EB|"Em"{=c}B2 AB dBAG|"D"F/E/D AD BDAD|"D"F/E/D AD {=c}BAGF|
"Em"EB{=c}BA B2 EB|"Em"{=c}B2 AB defg|"D"{b}afec dBAF|[1"D"DEFD "Em"E3:|[2"D"DEFD "Em"E2||
|gf|"Em"eB {B/d/B/A/}B2 eBgf|"Em"eB {B/d/B/A/}B2 gedB|"D"A/A/A FA DAFA|"D"A/A/A FA defg|
"Em"eB {B/d/B/A/}B2 eBgf|"Em"eB {B/d/B/A/}B2 defg|"D"{b}afec dBAF|[1"D"DEFD "Em"E2:|[2"D"DEFD "Em"E3|]
